img/screens/empowering/04.svg

<svg width="140" height="90" viewBox="0 0 140 90" fill="none" xmlns="http://www.w3.org/2000/svg">
<mask id="mask0_10_314" style="mask-type:alpha" maskUnits="userSpaceOnUse" x="0" y="0" width="140" height="90">
<rect width="140" height="90" fill="#D9D9D9"/>
</mask>
<g mask="url(#mask0_10_314)">
<path fill-rule="evenodd" clip-rule="evenodd" d="M46.9854 9.49255C59.3678 7.27654 72.356 6.68168 85.2506 9.32514C97.933 11.9251 110.171 16.7069 118.445 24.1423C126.386 31.2773 126.627 40.2931 129.249 48.8623C132.125 58.2639 141.361 68.8848 134.477 76.5447C127.574 84.2252 110.416 82.3603 97.3944 84.3077C86.6644 85.9124 76.4582 87.6049 65.212 86.9031C51.5792 86.0524 36.5267 86.4082 25.8219 79.8414C14.6982 73.0177 11.673 62.2762 9.07078 52.4639C6.35708 42.2312 3.28628 31.0324 10.6611 22.674C17.9588 14.403 33.2154 11.9569 46.9854 9.49255Z" fill="url(#paint0_linear_10_314)"/>
<path fill-rule="evenodd" clip-rule="evenodd" d="M43.5439 6.29431C55.9264 4.0783 68.9146 3.48344 81.8092 6.1269C94.4916 8.72685 106.73 13.5087 115.004 20.944C122.944 28.0791 123.186 37.0949 125.807 45.6641C128.683 55.0657 137.919 65.6866 131.035 73.3465C124.133 81.0269 106.975 79.1621 93.953 81.1095C83.223 82.7141 73.0168 84.4066 61.7706 83.7048C48.1378 82.8541 33.0853 83.21 22.3805 76.6432C11.2568 69.8195 8.23158 59.078 5.62937 49.2657C2.91568 39.033 -0.155129 27.8342 7.21971 19.4757C14.5174 11.2048 29.774 8.75864 43.5439 6.29431Z" fill="url(#paint1_linear_10_314)"/>
</g>
<path d="M91.4322 47.0653L93.4622 50.1553L92.1422 51.0153L90.1122 47.9353L89.4222 48.3953L89.2422 45.1953L92.1122 46.6153L91.4322 47.0653Z" fill="#E6ED2F"/>
<path d="M82.372 31.2452L82.552 34.4453L79.682 33.0153L80.372 32.5652L78.332 29.4853L79.642 28.6152L81.682 31.6953L82.372 31.2452Z" fill="#E6ED2F"/>
<path d="M93.9122 50.3051L91.4122 51.9552L89.4122 48.8651L88.2822 49.6151L87.9922 44.6151C88.1822 44.5051 88.3722 44.4052 88.5422 44.2852L93.0222 46.5052L91.9022 47.2451L93.9122 50.3051ZM91.6122 50.9752L92.9222 50.1052L90.9222 47.0251L91.6122 46.5652L88.7322 45.1451L88.9222 48.3452L89.6022 47.8951L91.6122 50.9752Z" fill="#2E2E2E"/>
<path d="M87.9219 43.9746L88.5119 44.2646C88.3419 44.3846 88.1519 44.4846 87.9619 44.5946L87.9219 43.9746Z" fill="#2E2E2E"/>
<path d="M82.9611 35.2656L83.0111 36.0756L82.3711 35.7556C82.5522 35.5744 82.7497 35.4104 82.9611 35.2656Z" fill="#2E2E2E"/>
<path d="M82.0642 31.696L81.3742 32.1459L79.3742 29.0659L78.0642 29.9359L80.0642 33.016L79.3842 33.476L82.2542 34.9059L82.0642 31.696ZM81.5742 31.166L82.6942 30.426L82.9642 35.266C82.7529 35.4107 82.5554 35.5748 82.3742 35.756L77.9542 33.5659L79.0742 32.8159L77.0742 29.736L79.5742 28.0859L81.5742 31.166Z" fill="#2E2E2E"/>
<path d="M78.3534 21.886C79.5634 20.886 82.4034 21.036 83.7534 21.606C86.1534 22.606 88.0434 24.606 90.0334 26.766L91.1634 27.966C91.9176 28.7764 92.5386 29.7012 93.0034 30.706C93.3097 31.381 93.703 32.013 94.1734 32.586C94.6926 33.2278 94.972 34.0305 94.9634 34.856C94.9672 35.2605 94.9029 35.6628 94.7734 36.046C94.5804 36.5442 94.3286 37.0176 94.0234 37.456C93.9134 37.616 93.8134 37.786 93.7034 37.966C93.3269 38.5739 92.9093 39.1552 92.4534 39.706C91.9718 40.2909 91.5371 40.9128 91.1534 41.566C90.5042 42.6659 89.5984 43.5924 88.5134 44.266L87.9234 43.976L87.8534 43.836C88.9587 43.2097 89.8822 42.3068 90.5334 41.216C90.9409 40.5328 91.3989 39.8811 91.9034 39.266C92.332 38.7328 92.7293 38.1752 93.0934 37.596L93.4334 37.066C93.7111 36.6772 93.9363 36.2536 94.1034 35.806C94.2612 35.3455 94.3018 34.8529 94.2215 34.3728C94.1411 33.8926 93.9424 33.4401 93.6434 33.056C93.138 32.4451 92.7113 31.7732 92.3734 31.056C91.9337 30.1147 91.35 29.2476 90.6434 28.486L89.5234 27.286C87.5734 25.196 85.7434 23.236 83.5234 22.286C82.3434 21.796 79.8034 21.646 78.8434 22.456C77.8834 23.266 77.1634 24.176 77.2034 24.456C77.2834 24.966 77.8334 26.286 78.3734 26.366C78.9459 26.5002 79.5482 26.407 80.0534 26.106C80.2166 25.9675 80.351 25.7982 80.4488 25.6077C80.5466 25.4173 80.6059 25.2094 80.6234 24.996C80.648 24.8477 80.7057 24.7068 80.7923 24.5839C80.8788 24.461 80.992 24.3592 81.1234 24.286C81.3917 24.1265 81.6903 24.0245 82.0002 23.9866C82.3101 23.9488 82.6245 23.9758 82.9234 24.066C83.5054 24.3144 83.9705 24.7759 84.2234 25.356C84.349 25.5807 84.4928 25.7948 84.6534 25.996C85.7834 27.186 86.1734 28.796 86.6534 30.656C86.9733 32.0743 87.3944 33.4679 87.9134 34.826C87.9382 34.8887 87.9439 34.9573 87.9296 35.0232C87.9154 35.089 87.8819 35.1492 87.8334 35.196C87.7869 35.2482 87.7256 35.2849 87.6576 35.301C87.5896 35.3171 87.5183 35.3119 87.4534 35.286C86.7224 35.0044 85.927 34.9338 85.1579 35.0823C84.3888 35.2308 83.6769 35.5925 83.1034 36.126L83.0534 35.316C83.6124 34.8804 84.2613 34.5745 84.9531 34.4206C85.645 34.2667 86.3623 34.2686 87.0534 34.426C86.6596 33.247 86.3258 32.0488 86.0534 30.836C85.6034 29.006 85.2434 27.556 84.2534 26.506C84.0497 26.2727 83.8719 26.0178 83.7234 25.746C83.4634 25.306 83.1934 24.866 82.8434 24.746C82.6412 24.685 82.4287 24.666 82.2189 24.69C82.0091 24.7141 81.8065 24.7808 81.6234 24.886C81.5788 24.9058 81.5389 24.9348 81.5062 24.9709C81.4735 25.0071 81.4487 25.0497 81.4334 25.096C81.4042 25.4027 81.314 25.7005 81.168 25.9719C81.022 26.2432 80.8233 26.4827 80.5834 26.676C79.9307 27.0925 79.1394 27.2328 78.3834 27.066C77.3034 26.906 76.6934 25.066 76.6134 24.566C76.3334 23.646 78.0134 22.176 78.3534 21.886Z" fill="#2E2E2E"/>
<path d="M73.7615 40.5555C73.4316 40.9148 73.015 41.1834 72.5515 41.3355C72.207 41.4031 71.8525 41.4007 71.5089 41.3286C71.1653 41.2564 70.8397 41.116 70.5515 40.9156L69.9915 40.6356C69.2015 40.2656 68.9915 38.7656 69.3115 35.6356C69.3202 35.5563 69.3556 35.4824 69.412 35.426C69.4683 35.3696 69.5423 35.3342 69.6215 35.3256C69.9338 35.2082 70.2022 34.9973 70.3902 34.7217C70.5781 34.446 70.6764 34.1191 70.6715 33.7856C70.6715 33.2456 70.4815 32.9122 70.1015 32.7856C70.0176 32.7642 69.9446 32.7125 69.8966 32.6405C69.8486 32.5685 69.829 32.4812 69.8415 32.3955C69.9706 31.2451 69.9234 30.0817 69.7015 28.9456L70.0415 28.8655C70.1329 28.843 70.2119 28.7856 70.2615 28.7056C70.2805 28.6631 70.2904 28.6171 70.2904 28.5706C70.2904 28.524 70.2805 28.478 70.2615 28.4355C70.5569 29.6724 70.6514 30.9487 70.5415 32.2155C70.8116 32.3625 71.0318 32.5864 71.1743 32.8589C71.3167 33.1313 71.3749 33.4399 71.3415 33.7455C71.3402 34.202 71.2087 34.6486 70.9625 35.0329C70.7163 35.4173 70.3656 35.7235 69.9515 35.9156C69.6315 39.3856 70.0915 39.9156 70.2515 39.9156L70.8215 40.2056C71.0452 40.3725 71.3013 40.4907 71.5734 40.5527C71.8455 40.6147 72.1276 40.6191 72.4015 40.5656C72.7364 40.4207 73.0364 40.2059 73.2815 39.9355C73.8765 39.3342 74.5852 38.8573 75.3664 38.5328C76.1476 38.2083 76.9856 38.0427 77.8315 38.0456H78.4415C79.8615 38.0456 80.5015 38.0456 81.7015 36.4156C81.8977 36.1456 82.1187 35.8945 82.3615 35.6656L83.0015 35.9856C82.7189 36.2302 82.464 36.5051 82.2415 36.8055C80.8315 38.8055 79.8715 38.7556 78.4015 38.7356H77.8015C77.0406 38.7533 76.291 38.9235 75.5971 39.2361C74.9031 39.5488 74.279 39.9974 73.7615 40.5555Z" fill="#2E2E2E"/>
<path d="M61.9439 28.3154C64.4333 28.7704 66.9845 28.7704 69.4739 28.3154C69.5593 28.5327 69.6262 28.7569 69.6739 28.9854C68.3585 29.2598 67.0176 29.3939 65.6739 29.3854C64.3582 29.3913 63.0452 29.2674 61.7539 29.0154C61.8031 28.7785 61.8665 28.5447 61.9439 28.3154Z" fill="#2E2E2E"/>
<path d="M65.7417 26.3457H66.2117C67.1017 26.3457 69.0717 26.5657 69.8017 27.4457L69.9317 27.6357C69.9642 27.6859 69.9911 27.7396 70.0117 27.7957C70.017 27.8221 70.017 27.8493 70.0117 27.8757C70.1008 28.0661 70.1744 28.2634 70.2317 28.4657C70.2507 28.5082 70.2606 28.5542 70.2606 28.6007C70.2606 28.6472 70.2507 28.6933 70.2317 28.7357C70.1821 28.8158 70.1031 28.8732 70.0117 28.8957L69.6717 28.9757C69.624 28.7471 69.5571 28.523 69.4717 28.3057C69.4238 28.1568 69.3493 28.0179 69.2517 27.8957C68.3341 27.2674 67.231 26.9679 66.1217 27.0457H66.0417H65.9617H65.3017C64.1923 26.9679 63.0893 27.2674 62.1717 27.8957C62.0719 28.0218 61.9942 28.1638 61.9417 28.3157C61.8647 28.5417 61.8012 28.7721 61.7517 29.0057L61.4017 28.9157C61.3102 28.8932 61.2313 28.8358 61.1817 28.7557C61.1649 28.7162 61.1562 28.6737 61.1562 28.6307C61.1562 28.5878 61.1649 28.5452 61.1817 28.5057C61.2281 28.3202 61.2917 28.1394 61.3717 27.9657C61.3923 27.9095 61.4191 27.8559 61.4517 27.8057C61.4647 27.7546 61.4886 27.7069 61.5217 27.6657C61.5569 27.5941 61.6005 27.5269 61.6517 27.4657C62.3817 26.5857 64.3617 26.4057 65.2517 26.3657H65.3317L65.4117 26.7257V26.3657H65.7517L65.7417 26.3457Z" fill="#2E2E2E"/>
<path d="M61.6222 27.4355C61.571 27.4968 61.5274 27.5639 61.4922 27.6356C61.5296 27.5652 61.5731 27.4983 61.6222 27.4355Z" fill="#2E2E2E"/>
<path d="M61.4237 27.7754C61.3912 27.8256 61.3644 27.8792 61.3438 27.9354C61.3602 27.8775 61.3873 27.8232 61.4237 27.7754Z" fill="#2E2E2E"/>
<path d="M52.6515 53.6254L51.5715 52.1754C51.1316 51.6231 50.7559 51.0225 50.4515 50.3854L50.2915 50.0854C50.1087 49.7098 49.9517 49.3223 49.8215 48.9254C49.5315 48.1354 49.1315 47.0454 48.6615 46.7754C47.5859 46.2391 46.473 45.7812 45.3315 45.4054C43.2279 44.8004 41.4267 43.4307 40.2815 41.5654C39.8912 40.914 39.4533 40.2924 38.9715 39.7054C38.5183 39.1549 38.1039 38.5735 37.7315 37.9654C37.6115 37.7854 37.5115 37.6154 37.4015 37.4554C37.0962 37.0169 36.8445 36.5436 36.6515 36.0454C36.4516 35.4649 36.4017 34.8432 36.5067 34.2382C36.6116 33.6333 36.8678 33.0647 37.2515 32.5854C37.7239 32.0139 38.1174 31.3816 38.4215 30.7054C38.8863 29.7006 39.5073 28.7758 40.2615 27.9654L41.3915 26.7654C43.3915 24.6254 45.2715 22.6054 47.6715 21.6054C49.0215 21.0354 51.8715 20.8654 53.0815 21.8854C53.4215 22.1754 55.0815 23.6454 54.9615 24.5354C54.8815 25.0354 54.2715 26.8754 53.1915 27.0354C52.4354 27.2011 51.6445 27.0609 50.9915 26.6454C50.7513 26.4531 50.5529 26.2138 50.4084 25.9421C50.264 25.6704 50.1766 25.3721 50.1515 25.0654C50.1111 24.9743 50.0405 24.9001 49.9515 24.8554C49.7669 24.7494 49.5625 24.6822 49.351 24.6582C49.1394 24.6341 48.9252 24.6536 48.7215 24.7154C48.3815 24.8154 48.1115 25.2554 47.8515 25.7154C47.7029 25.9872 47.5252 26.242 47.3215 26.4754C46.3215 27.5254 45.9715 28.9754 45.5215 30.8154C45.2515 31.8854 44.9615 33.0754 44.5215 34.3954C45.5044 34.2071 46.5208 34.3082 47.4474 34.6862C48.374 35.0643 49.1709 35.7032 49.7415 36.5254C50.9415 38.1854 51.5815 38.1754 52.9915 38.1554H53.6215C54.4658 38.1533 55.3021 38.3194 56.0815 38.6439C56.861 38.9684 57.5681 39.4448 58.1615 40.0454C58.4066 40.3157 58.7066 40.5305 59.0415 40.6754C59.3154 40.729 59.5975 40.7246 59.8696 40.6626C60.1417 40.6006 60.3978 40.4823 60.6215 40.3154L61.2115 40.0354C61.3615 39.9654 61.8315 39.4554 61.5115 36.0354C61.0974 35.8433 60.7467 35.5371 60.5005 35.1528C60.2543 34.7684 60.1228 34.3218 60.1215 33.8654C60.0894 33.5599 60.1482 33.2518 60.2905 32.9796C60.4328 32.7075 60.6523 32.4833 60.9215 32.3354C60.812 31.0818 60.9066 29.8187 61.2015 28.5954C61.1847 28.6349 61.1761 28.6774 61.1761 28.7204C61.1761 28.7633 61.1847 28.8059 61.2015 28.8454C61.2511 28.9254 61.33 28.9829 61.4215 29.0054L61.7715 29.0954C61.5447 30.2209 61.4974 31.3752 61.6315 32.5154C61.6441 32.6011 61.6244 32.6883 61.5764 32.7603C61.5284 32.8324 61.4554 32.8841 61.3715 32.9054C60.9815 33.0054 60.8015 33.3254 60.8015 33.9054C60.7981 34.2386 60.8969 34.5649 61.0847 34.8403C61.2724 35.1157 61.54 35.3268 61.8515 35.4454C61.9308 35.454 62.0047 35.4895 62.061 35.5458C62.1174 35.6022 62.1529 35.6761 62.1615 35.7554C62.4715 38.8954 62.2715 40.3954 61.4915 40.7554L60.9315 41.0354C60.6423 41.2338 60.3167 41.373 59.9734 41.4451C59.6302 41.5172 59.2761 41.5207 58.9315 41.4554C58.4681 41.3032 58.0514 41.0347 57.7215 40.6754C57.1924 40.1314 56.5596 39.6988 55.8606 39.4034C55.1616 39.108 54.4104 38.9557 53.6515 38.9554H53.0415C51.5715 38.9554 50.6115 38.9554 49.2015 37.0254C48.6551 36.2205 47.8562 35.6204 46.9309 35.3199C46.0056 35.0193 45.0066 35.0353 44.0915 35.3654C44.0266 35.3912 43.9553 35.3965 43.8873 35.3804C43.8193 35.3643 43.7579 35.3276 43.7115 35.2754C43.6622 35.229 43.6289 35.1683 43.6163 35.1018C43.6037 35.0353 43.6125 34.9665 43.6415 34.9054C44.1485 33.5441 44.566 32.1511 44.8915 30.7354C45.3515 28.8754 45.7515 27.2654 46.8915 26.0754C47.0589 25.8771 47.2063 25.6627 47.3315 25.4354C47.5844 24.8553 48.0494 24.3938 48.6315 24.1454C48.9307 24.0541 49.2459 24.0275 49.5562 24.0671C49.8665 24.1068 50.1648 24.2118 50.4315 24.3754C50.5606 24.4501 50.6727 24.551 50.7605 24.6715C50.8483 24.7921 50.91 24.9296 50.9415 25.0754C50.9549 25.2887 51.0115 25.497 51.1077 25.6878C51.204 25.8786 51.3379 26.0479 51.5015 26.1854C52.0067 26.4864 52.6089 26.5796 53.1815 26.4454C53.7215 26.3654 54.2715 25.0454 54.3515 24.5354C54.3515 24.2554 53.6015 23.2854 52.7115 22.5354C51.8215 21.7854 49.2115 21.8754 48.0315 22.3654C45.7815 23.3154 43.9415 25.2754 42.0315 27.3654C41.6715 27.7654 41.2915 28.1654 40.9015 28.5754C40.1973 29.3369 39.6169 30.2041 39.1815 31.1454C38.8472 31.8646 38.4203 32.537 37.9115 33.1454C37.6124 33.5295 37.4137 33.9821 37.3334 34.4622C37.2531 34.9423 37.2937 35.4349 37.4515 35.8954C37.6238 36.3456 37.8523 36.7724 38.1315 37.1654C38.2315 37.3254 38.3515 37.4954 38.4615 37.6854C38.8184 38.2718 39.2196 38.8301 39.6615 39.3554C40.1611 39.9696 40.6125 40.6215 41.0115 41.3054C42.0823 43.011 43.7454 44.261 45.6815 44.8154C46.8679 45.2078 48.0242 45.6857 49.1415 46.2454C49.8792 46.9181 50.3924 47.8013 50.6115 48.7754C50.7334 49.137 50.877 49.491 51.0415 49.8354L51.2015 50.1454C51.495 50.7494 51.8538 51.3195 52.2715 51.8454L53.3515 53.2954C54.2915 54.5554 55.1015 55.6554 56.0215 57.0154C56.9415 58.3754 57.5515 64.3654 57.4815 66.5154H74.1915C74.1415 64.3654 74.7215 58.4354 75.6615 57.0154C76.6015 55.5954 77.3615 54.5954 78.2915 53.3454L79.4215 51.8454C79.832 51.3165 80.1872 50.7468 80.4815 50.1454L80.6415 49.8354C80.8082 49.5126 80.9519 49.1784 81.0715 48.8354C81.288 47.8575 81.8014 46.9704 82.5415 46.2954C83.6572 45.74 84.81 45.2621 85.9915 44.8654C86.6903 44.6469 87.3614 44.3483 87.9915 43.9754L88.0615 44.1154V44.7354C87.4623 45.0652 86.8327 45.3364 86.1815 45.5454C85.0438 45.923 83.9344 46.3808 82.8615 46.9154C82.3915 47.1854 81.9915 48.2754 81.7015 49.0754C81.5682 49.4665 81.4147 49.8503 81.2415 50.2254L81.0715 50.5254C80.7697 51.1639 80.3937 51.7647 79.9515 52.3154L78.8315 53.8154C77.9115 55.0554 77.1115 56.1354 76.2215 57.4654C75.3315 58.7954 74.7215 65.1454 74.8915 66.8754C74.8976 66.9243 74.8926 66.9739 74.8771 67.0206C74.8615 67.0673 74.8357 67.1099 74.8015 67.1454C74.7704 67.1842 74.7308 67.2153 74.6857 67.2361C74.6405 67.2569 74.5911 67.267 74.5415 67.2654H56.9815C56.932 67.2655 56.8831 67.2548 56.8382 67.2341C56.7933 67.2134 56.7535 67.1831 56.7215 67.1454C56.6873 67.1099 56.6614 67.0673 56.6459 67.0206C56.6303 66.9739 56.6254 66.9243 56.6315 66.8754C56.8015 65.1454 56.1515 58.7354 55.3015 57.4654C54.4515 56.1954 53.5915 54.8854 52.6515 53.6254Z" fill="#2E2E2E"/>
<defs>
<linearGradient id="paint0_linear_10_314" x1="60.9037" y1="4.54116" x2="62.7929" y2="91.4641" gradientUnits="userSpaceOnUse">
<stop stop-color="#6D7582"/>
<stop offset="1" stop-color="#F4ECFF"/>
</linearGradient>
<linearGradient id="paint1_linear_10_314" x1="57.4623" y1="1.34292" x2="59.3515" y2="88.2658" gradientUnits="userSpaceOnUse">
<stop stop-color="#E8F0FE"/>
<stop offset="1" stop-color="#F4ECFF"/>
</linearGradient>
</defs>
</svg>

<svg width="140" height="90" fill="none" xmlns="http://www.w3.org/2000/svg"><mask id="a" style="mask-type:alpha" maskUnits="userSpaceOnUse" x="0" y="0" width="140" height="90"><path fill="#D9D9D9" d="M0 0h140v90H0z"/></mask><g mask="url(#a)" fill-rule="evenodd" clip-rule="evenodd"><path d="M46.985 9.493c12.383-2.216 25.371-2.811 38.266-.168 12.682 2.6 24.92 7.382 33.194 14.817 7.941 7.135 8.182 16.151 10.804 24.72 2.876 9.402 12.112 20.023 5.228 27.683-6.903 7.68-24.061 5.815-37.083 7.763-10.73 1.604-20.936 3.297-32.182 2.595-13.633-.85-28.685-.495-39.39-7.062C14.698 73.018 11.673 62.276 9.07 52.464c-2.714-10.233-5.785-21.432 1.59-29.79 7.298-8.271 22.554-10.717 36.324-13.181Z" fill="url(#b)"/><path d="M43.544 6.294c12.382-2.216 25.37-2.81 38.265-.167 12.683 2.6 24.921 7.382 33.195 14.817 7.94 7.135 8.182 16.15 10.803 24.72 2.876 9.402 12.112 20.023 5.228 27.683-6.902 7.68-24.06 5.815-37.082 7.763-10.73 1.604-20.936 3.297-32.182 2.595-13.633-.85-28.686-.495-39.39-7.062C11.256 69.82 8.23 59.078 5.628 49.266 2.916 39.033-.155 27.834 7.22 19.476c7.298-8.271 22.555-10.717 36.325-13.182Z" fill="url(#c)"/></g><path d="m91.432 47.065 2.03 3.09-1.32.86-2.03-3.08-.69.46-.18-3.2 2.87 1.42-.68.45Zm-9.06-15.82.18 3.2-2.87-1.43.69-.45-2.04-3.08 1.31-.87 2.04 3.08.69-.45Z" fill="#E6ED2F"/><path d="m93.912 50.305-2.5 1.65-2-3.09-1.13.75-.29-5c.19-.11.38-.21.55-.33l4.48 2.22-1.12.74 2.01 3.06Zm-2.3.67 1.31-.87-2-3.08.69-.46-2.88-1.42.19 3.2.68-.45 2.01 3.08Zm-3.69-7 .59.29c-.17.12-.36.22-.55.33l-.04-.62Zm-4.961-8.709.05.81-.64-.32a4.06 4.06 0 0 1 .59-.49Z" fill="#2E2E2E"/><path d="m82.064 31.696-.69.45-2-3.08-1.31.87 2 3.08-.68.46 2.87 1.43-.19-3.21Zm-.49-.53 1.12-.74.27 4.84a4.153 4.153 0 0 0-.59.49l-4.42-2.19 1.12-.75-2-3.08 2.5-1.65 2 3.08Z" fill="#2E2E2E"/><path d="M78.353 21.886c1.21-1 4.05-.85 5.4-.28 2.4 1 4.29 3 6.28 5.16l1.13 1.2a10.48 10.48 0 0 1 1.84 2.74c.307.675.7 1.307 1.17 1.88a3.55 3.55 0 0 1 .79 2.27c.004.404-.06.807-.19 1.19a6.71 6.71 0 0 1-.75 1.41c-.11.16-.21.33-.32.51-.376.608-.794 1.19-1.25 1.74a14.402 14.402 0 0 0-1.3 1.86 7.911 7.911 0 0 1-2.64 2.7l-.59-.29-.07-.14a7.33 7.33 0 0 0 2.68-2.62c.408-.683.866-1.335 1.37-1.95a17.49 17.49 0 0 0 1.19-1.67l.34-.53c.278-.389.503-.812.67-1.26a2.93 2.93 0 0 0-.46-2.75 9.468 9.468 0 0 1-1.27-2 10.003 10.003 0 0 0-1.73-2.57l-1.12-1.2c-1.95-2.09-3.78-4.05-6-5-1.18-.49-3.72-.64-4.68.17-.96.81-1.68 1.72-1.64 2 .08.51.63 1.83 1.17 1.91a2.27 2.27 0 0 0 1.68-.26 1.63 1.63 0 0 0 .57-1.11 1 1 0 0 1 .5-.71 2.25 2.25 0 0 1 1.8-.22 2.48 2.48 0 0 1 1.3 1.29c.126.225.27.439.43.64 1.13 1.19 1.52 2.8 2 4.66a30.45 30.45 0 0 0 1.26 4.17.34.34 0 0 1-.08.37.34.34 0 0 1-.38.09 4.18 4.18 0 0 0-4.35.84l-.05-.81a4.78 4.78 0 0 1 4-.89 36.76 36.76 0 0 1-1-3.59c-.45-1.83-.81-3.28-1.8-4.33a4.265 4.265 0 0 1-.53-.76c-.26-.44-.53-.88-.88-1a1.552 1.552 0 0 0-1.22.14.35.35 0 0 0-.19.21 2.311 2.311 0 0 1-.85 1.58 2.92 2.92 0 0 1-2.2.39c-1.08-.16-1.69-2-1.77-2.5-.28-.92 1.4-2.39 1.74-2.68Zm-4.592 18.67c-.33.359-.746.627-1.21.78a2.62 2.62 0 0 1-2-.42l-.56-.28c-.79-.37-1-1.87-.68-5a.35.35 0 0 1 .31-.31 1.621 1.621 0 0 0 1.05-1.54c0-.54-.19-.874-.57-1a.35.35 0 0 1-.26-.39c.13-1.15.082-2.314-.14-3.45l.34-.08a.36.36 0 0 0 .22-.16.33.33 0 0 0 0-.27 11.86 11.86 0 0 1 .28 3.78 1.55 1.55 0 0 1 .8 1.53 2.4 2.4 0 0 1-1.39 2.17c-.32 3.47.14 4 .3 4l.57.29a2 2 0 0 0 1.58.36 2.56 2.56 0 0 0 .88-.63 6.372 6.372 0 0 1 4.55-1.89h.61c1.42 0 2.06 0 3.26-1.63.197-.27.418-.521.66-.75l.64.32c-.282.244-.537.52-.76.82-1.41 2-2.37 1.95-3.84 1.93h-.6a5.689 5.689 0 0 0-4.04 1.82ZM61.944 28.315c2.49.455 5.04.455 7.53 0 .085.218.152.442.2.67a19 19 0 0 1-4 .4 19.997 19.997 0 0 1-3.92-.37c.05-.236.113-.47.19-.7Z" fill="#2E2E2E"/><path d="M65.742 26.346h.47c.89 0 2.86.22 3.59 1.1l.13.19c.032.05.06.104.08.16a.203.203 0 0 1 0 .08c.089.19.162.387.22.59a.33.33 0 0 1 0 .27.36.36 0 0 1-.22.16l-.34.08a4.148 4.148 0 0 0-.2-.67 1.29 1.29 0 0 0-.22-.41 4.93 4.93 0 0 0-3.13-.85h-.82a4.93 4.93 0 0 0-3.13.85 1.41 1.41 0 0 0-.23.42 5.99 5.99 0 0 0-.19.69l-.35-.09a.36.36 0 0 1-.22-.16.32.32 0 0 1 0-.25c.046-.186.11-.367.19-.54a.798.798 0 0 1 .08-.16.369.369 0 0 1 .07-.14.997.997 0 0 1 .13-.2c.73-.88 2.71-1.06 3.6-1.1h.08l.08.36v-.36h.34l-.01-.02Zm-4.12 1.09Zm-.198.339a.802.802 0 0 0-.08.16.48.48 0 0 1 .08-.16Z" fill="#2E2E2E"/><path d="m52.651 53.625-1.08-1.45a9.327 9.327 0 0 1-1.12-1.79l-.16-.3a9.212 9.212 0 0 1-.47-1.16c-.29-.79-.69-1.88-1.16-2.15a24.942 24.942 0 0 0-3.33-1.37 8.77 8.77 0 0 1-5.05-3.84 15.44 15.44 0 0 0-1.31-1.86 15.354 15.354 0 0 1-1.24-1.74c-.12-.18-.22-.35-.33-.51a6.709 6.709 0 0 1-.75-1.41 3.64 3.64 0 0 1 .6-3.46 8.283 8.283 0 0 0 1.17-1.88 10.48 10.48 0 0 1 1.84-2.74l1.13-1.2c2-2.14 3.88-4.16 6.28-5.16 1.35-.57 4.2-.74 5.41.28.34.29 2 1.76 1.88 2.65-.08.5-.69 2.34-1.77 2.5a2.93 2.93 0 0 1-2.2-.39 2.26 2.26 0 0 1-.84-1.58.43.43 0 0 0-.2-.21 1.56 1.56 0 0 0-1.23-.14c-.34.1-.61.54-.87 1a4.274 4.274 0 0 1-.53.76c-1 1.05-1.35 2.5-1.8 4.34-.27 1.07-.56 2.26-1 3.58a5.17 5.17 0 0 1 5.22 2.13c1.2 1.66 1.84 1.65 3.25 1.63h.63a6.36 6.36 0 0 1 4.54 1.89c.246.27.546.486.88.63a2 2 0 0 0 1.58-.36l.59-.28c.15-.07.62-.58.3-4a2.4 2.4 0 0 1-1.39-2.17 1.56 1.56 0 0 1 .8-1.53 11.638 11.638 0 0 1 .28-3.74.32.32 0 0 0 0 .25.36.36 0 0 0 .22.16l.35.09a10.88 10.88 0 0 0-.14 3.42.35.35 0 0 1-.26.39c-.39.1-.57.42-.57 1a1.63 1.63 0 0 0 1.05 1.54.35.35 0 0 1 .31.31c.31 3.14.11 4.64-.67 5l-.56.28a2.66 2.66 0 0 1-2 .42 2.85 2.85 0 0 1-1.21-.78 5.681 5.681 0 0 0-4.07-1.72h-.61c-1.47 0-2.43 0-3.84-1.93a4.38 4.38 0 0 0-5.11-1.66.34.34 0 0 1-.38-.09.32.32 0 0 1-.07-.37 33.375 33.375 0 0 0 1.25-4.17c.46-1.86.86-3.47 2-4.66.168-.198.315-.412.44-.64a2.48 2.48 0 0 1 1.3-1.29 2.21 2.21 0 0 1 1.8.23 1.07 1.07 0 0 1 .51.7 1.58 1.58 0 0 0 .56 1.11 2.27 2.27 0 0 0 1.68.26c.54-.08 1.09-1.4 1.17-1.91 0-.28-.75-1.25-1.64-2-.89-.75-3.5-.66-4.68-.17-2.25.95-4.09 2.91-6 5-.36.4-.74.8-1.13 1.21a9.918 9.918 0 0 0-1.72 2.57 9.09 9.09 0 0 1-1.27 2 2.93 2.93 0 0 0-.46 2.75c.173.45.401.877.68 1.27.1.16.22.33.33.52.357.587.759 1.145 1.2 1.67.5.615.951 1.267 1.35 1.95a8.17 8.17 0 0 0 4.67 3.51c1.187.393 2.343.87 3.46 1.43a4.87 4.87 0 0 1 1.47 2.53c.122.362.266.716.43 1.06l.16.31a9.195 9.195 0 0 0 1.07 1.7l1.08 1.45c.94 1.26 1.75 2.36 2.67 3.72.92 1.36 1.53 7.35 1.46 9.5h16.71c-.05-2.15.53-8.08 1.47-9.5s1.7-2.42 2.63-3.67l1.13-1.5a9.794 9.794 0 0 0 1.06-1.7l.16-.31c.167-.322.31-.657.43-1a4.86 4.86 0 0 1 1.47-2.54 27.093 27.093 0 0 1 3.45-1.43 9.484 9.484 0 0 0 2-.89l.07.14v.62a10.6 10.6 0 0 1-1.88.81 25.347 25.347 0 0 0-3.32 1.37c-.47.27-.87 1.36-1.16 2.16a11.53 11.53 0 0 1-.46 1.15l-.17.3a9.006 9.006 0 0 1-1.12 1.79l-1.12 1.5c-.92 1.24-1.72 2.32-2.61 3.65-.89 1.33-1.5 7.68-1.33 9.41a.33.33 0 0 1-.09.27.32.32 0 0 1-.26.12h-17.56a.34.34 0 0 1-.26-.12.33.33 0 0 1-.09-.27c.17-1.73-.48-8.14-1.33-9.41-.85-1.27-1.71-2.58-2.65-3.84Z" fill="#2E2E2E"/><defs><linearGradient id="b" x1="60.904" y1="4.541" x2="62.793" y2="91.464" gradientUnits="userSpaceOnUse"><stop stop-color="#6D7582"/><stop offset="1" stop-color="#F4ECFF"/></linearGradient><linearGradient id="c" x1="57.462" y1="1.343" x2="59.352" y2="88.266" gradientUnits="userSpaceOnUse"><stop stop-color="#E8F0FE"/><stop offset="1" stop-color="#F4ECFF"/></linearGradient></defs></svg>
